X:1
T: Mrs. MacKenzie
C:
R:Strathspey
Q: 128
K:F
M:4/4
L:1/16
|:d2|cc3 c3f fga2 g3f|d3f c3f AG3 G3d|ccc2 c3f fga2 g3f|df3 cf3 AF3 F2d2|
cc3 c3f fga2 g3f|d3f c3f AG3 G3d|ccc2 c3f fga2 g3f|df3 cf3 AF3 F2c2|
A3F F3B ABc2 B3A|Bd3 c3A BG3 G3c|AF3 F3B ABc2 B3A|Bd3 c3e fG3 F2c2|
A3F F3B ABc2 B3A|Bd3 c3A BG3 G3c|AF3 cA3 dB3 f3c|((3d2e2f2) ((3g2a2b2) af3 f2:|
